X:10
T:Humours of Ballyconnell, The
M:C|
L:1/8
Q:120
R:Reel (Key of D)
K:Dmaj
"D"defe dBAF | BFAF "A"~E3A | "D"defe dBAF |1 "A"BFAF "D"D3A :|2 "A"BFAF "D"D2DE |:
"D"(3FED AD BDAD | "Em"(3GFE BE (3GFE BE |"D"(3FED AD BDAF |1 "A"GBAF "D"D2DE :|2
"A"GBAF "D"D2fg |: "D"~a3g afdf | "A"gece gece | "D"~a3g afdf |1 "A"gece "D"defg:|2 
"A"gece "D"d3A |]
